assets/icons/radiobox/_.svg

<svg height="24" width="24" xmlns="http://www.w3.org/2000/svg"><g style="display:inline;opacity:1"><path style="fill:gray;stroke-width:.5;stroke-linecap:round;stroke-linejoin:round" d="M12 3a9 9 0 0 0-9 9 9 9 0 0 0 9 9 9 9 0 0 0 9-9 9 9 0 0 0-9-9zm0 1a8 8 0 0 1 8 8 8 8 0 0 1-8 8 8 8 0 0 1-8-8 8 8 0 0 1 8-8z"/></g></svg>

<?xml version="1.0" encoding="UTF-8" standalone="no"?>
<svg viewBox="0 0 24 24" sodipodi:docname="_.svg" inkscape:export-filename="./check-symbolic.symbolic.png" inkscape:export-xdpi="96" inkscape:export-ydpi="96" height="24" id="svg7384" version="1.1" inkscape:version="1.1 (ce6663b3b7, 2021-05-25)" width="24"
   xmlns:inkscape="http://www.inkscape.org/namespaces/inkscape"
   xmlns:sodipodi="http://sodipodi.sourceforge.net/DTD/sodipodi-0.dtd"
   xmlns="http://www.w3.org/2000/svg"
   xmlns:svg="http://www.w3.org/2000/svg"
   xmlns:rdf="http://www.w3.org/1999/02/22-rdf-syntax-ns#"
   xmlns:cc="http://creativecommons.org/ns#"
   xmlns:dc="http://purl.org/dc/elements/1.1/">
   <metadata id="metadata90">
      <rdf:RDF>
         <cc:Work rdf:about="">
            <dc:format>image/svg+xml</dc:format>
            <dc:type rdf:resource="http://purl.org/dc/dcmitype/StillImage" />
            <dc:title>Gnome Symbolic Icon Theme</dc:title>
         </cc:Work>
      </rdf:RDF>
   </metadata>
   <sodipodi:namedview inkscape:bbox-nodes="true" inkscape:bbox-paths="true" bordercolor="#666666" borderopacity="1" inkscape:current-layer="layer9" inkscape:cx="11.734375" inkscape:cy="12.640625" gridtolerance="10" inkscape:guide-bbox="true" guidetolerance="10" id="namedview88" inkscape:object-nodes="true" inkscape:object-paths="false" objecttolerance="10" pagecolor="#ffffff" inkscape:pageopacity="0" inkscape:pageshadow="2" showborder="true" showgrid="true" showguides="true" inkscape:snap-bbox="true" inkscape:snap-bbox-midpoints="false" inkscape:snap-global="true" inkscape:snap-grids="true" inkscape:snap-nodes="true" inkscape:snap-others="true" inkscape:snap-to-guides="true" inkscape:window-height="1016" inkscape:window-maximized="1" inkscape:window-width="1920" inkscape:window-x="0" inkscape:window-y="27" inkscape:zoom="32" inkscape:showpageshadow="false" inkscape:document-rotation="0" inkscape:pagecheckerboard="0">
      <inkscape:grid dotted="false" empspacing="2" enabled="true" id="grid4866" originx="-159.99995" originy="120" snapvisiblegridlinesonly="true" spacingx="1px" spacingy="1px" type="xygrid" visible="true" />
   </sodipodi:namedview>
   <title id="title9167">Gnome Symbolic Icon Theme</title>
   <defs id="defs7386">
      <linearGradient gradientTransform="matrix(-2.7365795,0.28202934,-0.18908311,-0.99988321,239.54008,-879.45557)" id="linearGradient19282" inkscape:swatch="solid">
         <stop id="stop19284" offset="0" style="stop-color:#666666;stop-opacity:1;" />
      </linearGradient>
   </defs>
   <g inkscape:groupmode="layer" id="layer9" inkscape:label="status" style="display:inline;opacity:1" transform="translate(-401.00015,-339)">
      <path id="path857" style="fill:#808080;fill-rule:evenodd;stroke-width:0.5;stroke-linecap:round;stroke-linejoin:round" d="M 12 3 A 9 9 0 0 0 3 12 A 9 9 0 0 0 12 21 A 9 9 0 0 0 21 12 A 9 9 0 0 0 12 3 z M 12 4 A 8 8 0 0 1 20 12 A 8 8 0 0 1 12 20 A 8 8 0 0 1 4 12 A 8 8 0 0 1 12 4 z " transform="translate(401.00015,339)" />
   </g>
   <g inkscape:groupmode="layer" id="layer10" inkscape:label="devices" style="display:inline" transform="translate(-401.00015,-339)" />
   <g inkscape:groupmode="layer" id="layer11" inkscape:label="apps" transform="translate(-401.00015,-339)" />
   <g inkscape:groupmode="layer" id="layer13" inkscape:label="places" style="display:inline" transform="translate(-401.00015,-339)" />
   <g inkscape:groupmode="layer" id="layer14" inkscape:label="mimetypes" transform="translate(-401.00015,-339)" />
   <g inkscape:groupmode="layer" id="layer15" inkscape:label="emblems" style="display:inline" transform="translate(-401.00015,-339)" />
   <g inkscape:groupmode="layer" id="g71291" inkscape:label="emotes" style="display:inline" transform="translate(-401.00015,-339)" />
   <g inkscape:groupmode="layer" id="g4953" inkscape:label="categories" style="display:inline" transform="translate(-401.00015,-339)" />
   <g inkscape:groupmode="layer" id="layer12" inkscape:label="actions" style="display:inline" transform="translate(-401.00015,-339)" />
</svg>
